docs/img/favicon/favicon.svg

<svg viewBox="0 0 26 19" fill="none" xmlns="http://www.w3.org/2000/svg">
<path fill-rule="evenodd" clip-rule="evenodd" d="M15.5948 15.3521C13.3858 14.4561 12.4058 16.8001 11.2078 17.2191C8.4718 18.1791 6.3418 14.2021 6.3418 14.2021C6.3418 14.2021 7.2338 13.8561 8.3418 13.0401C10.0218 11.8001 10.7118 11.0341 12.1808 10.5601C13.3738 10.6991 15.1138 13.0091 15.5948 15.3521Z" fill="#23B175"/>
<path fill-rule="evenodd" clip-rule="evenodd" d="M18.8378 18.3386C20.8728 14.3976 24.2878 12.4166 24.2878 12.4166C24.2878 12.4166 22.5358 10.7666 19.5188 9.94962C15.8898 8.97062 13.4258 9.95962 13.4258 9.95962C13.4258 9.95962 16.0298 11.2856 16.8158 15.6186C17.2748 18.1586 18.7158 18.3386 18.8378 18.3386" fill="#EC5956"/>
<path fill-rule="evenodd" clip-rule="evenodd" d="M14.0622 0.0250324C12.4332 -0.0659676 10.6592 0.0860324 8.73519 0.565032C3.19819 1.95103 -2.30381 7.84103 0.995192 12.417C3.99819 16.359 8.57319 11.016 11.7182 9.41503C10.4942 6.26803 11.6662 2.87803 14.0622 0.0250324" fill="#27A8E0"/>
<path fill-rule="evenodd" clip-rule="evenodd" d="M15.3926 0.156738C13.0266 2.78274 11.7886 5.92774 12.7526 8.96974C19.5276 6.43874 25.1066 11.5487 25.1066 11.5487C25.1066 11.5487 26.4596 8.04374 23.7846 4.70074C22.1766 2.69174 19.2936 0.716738 15.3926 0.156738" fill="#FAAD40"/>
</svg>

<svg viewBox="0 0 26 19" fill="none" xmlns="http://www.w3.org/2000/svg"><path fill-rule="evenodd" clip-rule="evenodd" d="M15.595 15.352c-2.21-.896-3.19 1.448-4.387 1.867-2.736.96-4.866-3.017-4.866-3.017s.892-.346 2-1.162c1.68-1.24 2.37-2.006 3.839-2.48 1.193.14 2.933 2.45 3.414 4.792z" fill="#23B175"/><path fill-rule="evenodd" clip-rule="evenodd" d="M18.838 18.339c2.035-3.941 5.45-5.922 5.45-5.922s-1.752-1.65-4.77-2.467c-3.628-.98-6.092.01-6.092.01s2.604 1.326 3.39 5.659c.459 2.54 1.9 2.72 2.022 2.72" fill="#EC5956"/><path fill-rule="evenodd" clip-rule="evenodd" d="M14.062.025c-1.629-.091-3.403.061-5.327.54C3.198 1.951-2.304 7.841.995 12.417c3.003 3.942 7.578-1.401 10.723-3.002-1.224-3.147-.052-6.537 2.344-9.39" fill="#27A8E0"/><path fill-rule="evenodd" clip-rule="evenodd" d="M15.393.157c-2.366 2.626-3.604 5.77-2.64 8.813 6.775-2.531 12.354 2.579 12.354 2.579S26.46 8.044 23.785 4.7C22.177 2.69 19.294.717 15.393.157" fill="#FAAD40"/></svg>
